svgs/book_reader.svg

<svg viewBox="0 0 192 192" xml:space="preserve" style="fill-rule:evenodd;clip-rule:evenodd;stroke-linejoin:round;stroke-miterlimit:2" xmlns="http://www.w3.org/2000/svg"><path d="m1335.1 45.913 1.6 97.46-22.08 2.524c-2.45.498-3.86 2.755-3.57 5.155.32 2.553 1.64 4.176 4.6 3.843l25.78-2.946 38.6 2.213c2.35.272 19.12 1.812 29.51-8.2 4.88-4.703 8.55-11.879 8.55-22.974 0-18.811-10.45-28.181-20.4-32.837a25.282 25.282 0 0 0 6.38-5.31c3.88-4.53 6.79-11.139 6.79-20.906 0-32.681-34.84-29.675-34.84-29.675l-36.45 2.955-22.29-1.96a4.533 4.533 0 0 0-4.91 4.114 4.534 4.534 0 0 0 4.12 4.908l18.61 1.636Zm44.78 48.72-34.9 1.103.78 47.39 34.92 2.001c.14.008.27.023.41.043 0 0 13.87 2.263 22.17-5.729 3.47-3.346 5.77-8.561 5.77-16.453 0-26.366-27.07-28.25-29.15-28.355Zm.36-9.049c.56.035 10.77.571 16.95-6.637 2.77-3.237 4.61-8.034 4.61-15.012 0-23.134-24.95-20.656-24.95-20.656a.842.842 0 0 0-.05.004l-32.65 2.647.68 40.749 34.95-1.104.46.008v.001Z" style="fill-rule:evenodd;clip-rule:evenodd;stroke-linejoin:round;stroke-miterlimit:2" transform="translate(-1711.72 -29.27) scale(1.32497)"/></svg>

<?xml version="1.0" encoding="UTF-8" standalone="no"?>
<svg
   width="100%"
   height="100%"
   viewBox="0 0 192 192"
   version="1.1"
   xml:space="preserve"
   style="fill-rule:evenodd;clip-rule:evenodd;stroke-linejoin:round;stroke-miterlimit:2;"
   id="svg10"
   sodipodi:docname="book_reader.svg"
   inkscape:version="1.2.1 (9c6d41e410, 2022-07-14)"
   xmlns:inkscape="http://www.inkscape.org/namespaces/inkscape"
   xmlns:sodipodi="http://sodipodi.sourceforge.net/DTD/sodipodi-0.dtd"
   xmlns="http://www.w3.org/2000/svg"
   xmlns:svg="http://www.w3.org/2000/svg"><defs
   id="defs14" /><sodipodi:namedview
   id="namedview12"
   pagecolor="#ffffff"
   bordercolor="#000000"
   borderopacity="0.25"
   inkscape:showpageshadow="2"
   inkscape:pageopacity="0.0"
   inkscape:pagecheckerboard="0"
   inkscape:deskcolor="#d1d1d1"
   showgrid="false"
   inkscape:zoom="5.3489583"
   inkscape:cx="136.47517"
   inkscape:cy="95.906524"
   inkscape:window-width="1274"
   inkscape:window-height="1303"
   inkscape:window-x="1282"
   inkscape:window-y="36"
   inkscape:window-maximized="0"
   inkscape:current-layer="svg10" />
    <path
   d="M1335.1,45.913L1336.7,143.373L1314.62,145.897C1312.17,146.395 1310.76,148.652 1311.05,151.052C1311.37,153.605 1312.69,155.228 1315.65,154.895L1341.43,151.949C1341.43,151.949 1380.03,154.162 1380.03,154.162C1382.38,154.434 1399.15,155.974 1409.54,145.962C1414.42,141.259 1418.09,134.083 1418.09,122.988C1418.09,104.177 1407.64,94.807 1397.69,90.151C1399.96,88.815 1402.14,87.083 1404.07,84.841C1407.95,80.311 1410.86,73.702 1410.86,63.935C1410.86,31.254 1376.02,34.26 1376.02,34.26C1376.07,34.256 1339.57,37.215 1339.57,37.215C1339.57,37.215 1317.28,35.255 1317.28,35.255C1314.79,35.036 1312.59,36.88 1312.37,39.369C1312.15,41.859 1314,44.058 1316.49,44.277L1335.1,45.913ZM1379.88,94.633L1344.98,95.736L1345.76,143.126L1380.68,145.127C1380.82,145.135 1380.95,145.15 1381.09,145.17C1381.09,145.17 1394.96,147.433 1403.26,139.441C1406.73,136.095 1409.03,130.88 1409.03,122.988C1409.03,96.622 1381.96,94.738 1379.88,94.633ZM1380.24,85.584C1380.8,85.619 1391.01,86.155 1397.19,78.947C1399.96,75.71 1401.8,70.913 1401.8,63.935C1401.8,40.801 1376.85,43.279 1376.85,43.279C1376.83,43.28 1376.82,43.281 1376.8,43.283L1344.15,45.93L1344.83,86.679L1379.78,85.575L1380.24,85.583L1380.24,85.584Z"
   id="path4"
   style="fill-rule:evenodd;clip-rule:evenodd;stroke-linejoin:round;stroke-miterlimit:2"
   transform="matrix(1.32497,0,0,1.32497,-1711.72,-29.2701)"
   inkscape:label="Book-Reader-Form" />
</svg>
